public/svg/fonon.svg

<svg width="163" height="98" viewBox="0 0 163 98" fill="none" xmlns="http://www.w3.org/2000/svg">
<path d="M146.857 0H16C7.16344 0 0 7.16344 0 16V81.7143C0 90.5509 7.16344 97.7143 16 97.7143H146.857C155.694 97.7143 162.857 90.5509 162.857 81.7143V16C162.857 7.16344 155.694 0 146.857 0Z" fill="#F9F4E8"/>
<path fill-rule="evenodd" clip-rule="evenodd" d="M50.8525 55.4732C57.5725 55.4732 61.269 53.2089 61.269 49.1116C61.269 44.7987 57.0125 42.75 50.8525 42.75C43.9085 42.75 40.4365 44.7987 40.4365 49.1116C40.4365 53.748 44.1325 55.4732 50.8525 55.4732ZM50.8525 53.748C55.6938 53.748 58.3565 52.0978 58.3565 49.1116C58.3565 45.9683 55.2904 44.4752 50.8525 44.4752C45.8499 44.4752 43.3485 45.9683 43.3485 49.1116C43.3485 52.4907 46.0112 53.748 50.8525 53.748Z" fill="#1D1A2F"/>
<path fill-rule="evenodd" clip-rule="evenodd" d="M107.973 55.4732C114.693 55.4732 118.389 53.2089 118.389 49.1116C118.389 44.7987 114.133 42.75 107.973 42.75C101.029 42.75 97.5566 44.7987 97.5566 49.1116C97.5566 53.748 101.253 55.4732 107.973 55.4732ZM107.973 53.748C112.814 53.748 115.477 52.0978 115.477 49.1116C115.477 45.9683 112.41 44.4752 107.973 44.4752C102.97 44.4752 100.469 45.9683 100.469 49.1116C100.469 52.4907 103.131 53.748 107.973 53.748Z" fill="#1D1A2F"/>
<path d="M17.8125 55.4732V42.75H32.8205V44.6908H20.7245V48.3568H29.9085L29.2365 50.082H20.7245V55.4732H17.8125Z" fill="#1D1A2F"/>
<path d="M70.4531 55.4732V42.75H73.9351L85.4611 52.6698V42.75H88.1491V55.4732H84.8831L73.1411 45.7691V55.4732H70.4531Z" fill="#1D1A2F"/>
<path d="M127.349 55.4732V42.75H130.833L142.357 52.6698V42.75H145.045V55.4732H141.779L130.037 45.7691V55.4732H127.349Z" fill="#1D1A2F"/>
</svg>

<svg xmlns="http://www.w3.org/2000/svg" width="163" height="98" fill="none" xmlns:v="https://vecta.io/nano"><path d="M146.857 0H16C7.163 0 0 7.163 0 16v65.714c0 8.837 7.163 16 16 16h130.857c8.837 0 16-7.163 16-16V16c0-8.837-7.163-16-16-16z" fill="#f9f4e8"/><path d="M50.853 55.473c6.72 0 10.417-2.264 10.417-6.362 0-4.313-4.256-6.362-10.416-6.362-6.944 0-10.416 2.049-10.416 6.362 0 4.636 3.696 6.362 10.416 6.362zm0-1.725c4.841 0 7.504-1.65 7.504-4.636 0-3.143-3.066-4.636-7.504-4.636-5.003 0-7.504 1.493-7.504 4.636 0 3.379 2.663 4.636 7.504 4.636zm57.12 1.725c6.72 0 10.416-2.264 10.416-6.362 0-4.313-4.256-6.362-10.416-6.362-6.944 0-10.416 2.049-10.416 6.362 0 4.636 3.696 6.362 10.416 6.362zm0-1.725c4.841 0 7.504-1.65 7.504-4.636 0-3.143-3.067-4.636-7.504-4.636-5.003 0-7.504 1.493-7.504 4.636 0 3.379 2.662 4.636 7.504 4.636z" fill-rule="evenodd" fill="#1d1a2f"/><path d="M17.813 55.473V42.75h15.008v1.941H20.725v3.666h9.184l-.672 1.725h-8.512v5.391h-2.912zm52.64 0V42.75h3.482l11.526 9.92v-9.92h2.688v12.723h-3.266l-11.742-9.704v9.704h-2.688zm56.896 0V42.75h3.484l11.524 9.92v-9.92h2.688v12.723h-3.266l-11.742-9.704v9.704h-2.688z" fill="#1d1a2f"/></svg>
